www/assets/icons/record_voice_over.svg

<svg width="24" height="24" viewBox="0 0 24 24" xmlns="http://www.w3.org/2000/svg" fill='currentColor'><path d="M9.00061 13.5C11.2097 13.5 13.0006 11.7091 13.0006 9.5C13.0006 7.29086 11.2097 5.5 9.00061 5.5C6.79147 5.5 5.00061 7.29086 5.00061 9.5C5.00061 11.7091 6.79147 13.5 9.00061 13.5Z"/><path d="M9.00061 15.5C6.33061 15.5 1.00061 16.84 1.00061 19.5V21.5H17.0006V19.5C17.0006 16.84 11.6706 15.5 9.00061 15.5ZM16.7606 5.86L15.0806 7.55C15.9206 8.73 15.9206 10.26 15.0806 11.44L16.7606 13.13C18.7806 11.11 18.7806 8.06 16.7606 5.86ZM20.0706 2.5L18.4406 4.13C21.2106 7.15 21.2106 11.69 18.4406 14.87L20.0706 16.5C23.9706 12.61 23.9806 6.55 20.0706 2.5Z"/></svg>

<svg xmlns="http://www.w3.org/2000/svg" width="24" height="24" viewBox="0 0 24 24" fill='currentColor'><path d="M9 13.5a4 4 0 1 0 0-8 4 4 0 0 0 0 8m0 2c-2.67 0-8 1.34-8 4v2h16v-2c0-2.66-5.33-4-8-4m7.76-9.64-1.68 1.69c.84 1.18.84 2.71 0 3.89l1.68 1.69c2.02-2.02 2.02-5.07 0-7.27m3.31-3.36-1.63 1.63c2.77 3.02 2.77 7.56 0 10.74l1.63 1.63c3.9-3.89 3.91-9.95 0-14"/></svg>
